X: 32
T: No_125_Song_of_Victory_Over_Black_Hawk.krn
N: Derived from No_125_Song_of_Victory_Over_Black_Hawk.krn
%%abc-version 2.0
%%abcx-abcm2ps-target-version 5.9.1 (29 Sep 2008)
%%abc-creator hum2abc beta
%%abcx-conversion-date 2019/03/15 08:35:44
%%humdrum-veritas 1022475710
%%humdrum-veritas-data 3753491584
%%linebreak <none>
%%barnumbers 0
L: 1/8
M: 2/4
K: Bb clef=bass
[K:clef=bass][M:2/4](3CCCC2 | 
B,/C3/ C3/B,/ | 
B,4 | 
B,B,B,2 | 
G,G,z2 | 
(3B,CCB,2 | 
G,/G,3/ G,3/F,/ | 
F,4 | 
G,F,F,2 | 
F,F,z2 | 
(3B,B,B,G,2 | 
F,/G,3/ G,3/F,/ | 
F,4 | 
G,F,F,2 | 
D,D,z2 | 
(3F,F,G,F,2 | 
D,/D,3/ (D,3/B,,/) | 
B,,3z | 
D,B,,B,,2 | 
B,,B,,z2 | 
(3D,D,D,C,2 | 
B,,/C,3/ C,3/B,,/ | 
B,,2z2 | 
D,B,,B,,2 | 
B,,B,,z2 |]  



